X:1
T:I Was Poor as the Poorest
T:I Was Poor as the Poorest
T:Joseph Lincoln Hall
T:Frank H. Mashaw, 1899
T:Public Domain Courtesy of the Cyber Hymnal™
T:Public Domain Courtesy of the Cyber Hymnal™
C:Joseph Lincoln Hall
Z:Public Domain
Z:Courtesy of the Cyber Hymnal™
%%score ( 1 2 ) 3
L:1/8
Q:1/4=98
M:4/4
K:Eb
V:1 treble 
V:2 treble 
V:3 bass 
V:1
 E>[EG] | [GB]2 [Ac]>[GB] [GB] [EG]2 [GB] | [Ge]2 [Ad]>[Ac] [GB]3 [GB] | %3
w: 1.~I was|poor as the poor- est out-|cast from the fold, I|
w: 2.~I was|poor as the poor- est, I|shrank from the throng, I|
w: 3.~I was|poor as the poor- est, I|wan- dered a- lone, No|
w: 4.~I was|poor as the poor- est; He|came from the sky With|
w: 5.~I was|poor as the poor- est till|Je- sus stooped low And|
 [GB]2 [Ac]>[GB] [GB] [EG]2 [EG] | [EG]2 [EF]>E [DF]2 E>[EG] | [GB]2 [Ac]>[GB] [GB]2 [EG]>[GB] | %6
w: sank by the way- side with|hun- ger and cold; But He|bade me look up, all His|
w: hid in the dark- ness that|dwelt with me long; But He|came like the morn- ing with|
w: dwell- ing I had, and my|pil- low a stone; But I|heard some- one whis- per, “My|
w: love that was death- less for|sin- ners to die; And He|bled on the cross, and my|
w: washed all my sins of the|white- ness of snow; And so|that is the rea- son I|
 [Ge]2 [Ad]>[Ac] [GB]2 E>[EF] | [EG]2 [GB]>[Ac] [GB]3 [EG] | [DF]4 !fermata!E2 || %9
w: rich- es be- hold; O the|wealth of the world is|Je- sus.|
w: sun- light and song, Now the|light of my life is|Je- sus.|
w: child, still My own”; Now the|peace of my heart is|Je- sus.|
w: heart said, “’Tis I”; Now the|love in my soul is|Je- sus.|
w: love Him, you know; O the|wealth of the world is|Je- sus.|
"^Refrain" [GB]>[GB] | [Ge]2 [Ad]>[Ac] [GB] [EG]2 [GB] | [Ac]2 [GB]>[EG] [GB]2 [GB]>[GB] | %12
w: |||
w: |||
w: I was|poor as the poor- est out-|cast from the fold, But He|
w: |||
w: |||
 [Ge]2 [Ad]>[Ac] [GB] [EG]2 [EG] | [E=A]2 [DB]>[Ec] [DB]2 E>[EG] | %14
w: ||
w: ||
w: gave me great trea- sures of|sil- ver and gold, And a|
w: ||
w: ||
 [GB]2 [Ac]>[GB] [GB]2 [EG]>[GB] | [Ge]2 [Ad]>[Ac] [GB]2 E>[EF] | [EG]2 [GB]>[Ac] [GB]3 [EG] | %17
w: |||
w: |||
w: man- sion a- bove that will|ne- ver grow old, For the|wealth of the world is|
w: |||
w: |||
 [DF]4 !fermata!E2 |] %18
w: |
w: |
w: Je- sus.|
w: |
w: |
V:2
 E3/2 x/ | x8 | x8 | x8 | x7/2 E/ x3/2 E3/2 x | x8 | x6 E3/2 x/ | x8 | x4 E2 || x2 | x8 | x8 | x8 | %13
 x6 E3/2 x/ | x8 | x6 E3/2 x/ | x8 | x4 E2 |] %18
V:3
 [E,G,]>[E,B,] | [E,E]2 [E,E]>[E,E] [E,E] [E,B,]2 [E,E] | [E,B,]2 [E,C]>[E,D] [E,E]3 [E,E] | %3
 [E,E]2 [E,E]>[E,E] [E,E] [E,B,]2 [E,B,] | [C,=A,]2 [C,A,]>[C,A,] [B,,_A,]2 [E,G,]>[E,B,] | %5
 [E,E]2 [E,E]>[E,E] [E,E]2 [E,B,]>[E,E] | [E,B,]2 [E,C]>[E,D] [E,E]2 [E,G,]>[E,A,] | %7
 [E,B,]2 [E,E]>[E,E] [E,E]3 [E,B,] | [B,,A,]4 !fermata![E,G,]2 || [E,E]>[E,E] | %10
 [E,B,]2 [E,C]>[E,D] [E,E] [E,B,]2 [E,E] | [E,E]2 [E,E]>[E,B,] [E,E]2 [E,E]>[E,E] | %12
 [E,B,]2 [E,C]>[E,D] [E,D] [E,B,]2 [G,B,] | [F,C]2 [F,B,]>[F,=A,] [B,,B,]2 [E,G,]>[E,B,] | %14
 [E,E]2 [E,E]>[E,E] [E,E]2 [E,B,]>[E,E] | [E,B,]2 [E,C]>[E,D] [E,E]2 [E,G,]>[E,A,] | %16
 [E,B,]2 [E,E]>[E,E] [E,E]3 [E,B,] | [B,,A,]4 !fermata![E,G,]2 |] %18

